X: 1776
T: Apsley Cottage, The
R: jig
M: 6/8
K: Amajor
|:~c3 cBc|ecA BAE|~F3 FEF|ABc c2B|
~c3 cBc|ecA BAE|~F3 Eag|1 fec BAB:|2 fec BAE||
~F3 FEF|ABc c2B|ABA ABc|BAB cAE|
~F3 FEF|ABc c2B|ABA Aa^g|fec BAE|
~F3 FEF|ABc c2B|ABA ABc|BAB cef|
az^g- gag|fec fec|AB2 BAB|cec f2e||

